symbols/web/data_exploration/materialsymbolsoutlined/data_exploration_wght200grad200fill1_40px.svg

<svg xmlns="http://www.w3.org/2000/svg" height="40" width="40"><path d="M33.042 34.542q.625 0 1.083-.459.458-.458.458-1.083 0-.583-.458-1.042-.458-.458-1.083-.458-.584 0-1.042.458-.458.459-.458 1.042 0 .625.458 1.083.458.459 1.042.459Zm-13.084 1.416q-4.583 0-7.958-2.062-3.375-2.063-5.5-5.396l6.75-6.792 5.5 4.709 8.25-8.25v4h2.125v-7.709h-7.667v2.167H25.5L18.625 23.5l-5.542-4.667L5.375 26.5q-.667-1.375-1-3.125-.333-1.75-.333-3.208 0-3.334 1.25-6.271 1.25-2.938 3.396-5.146 2.145-2.208 5.062-3.479Q16.667 4 20.042 4q3.333 0 6.229 1.271t5.041 3.479q2.146 2.208 3.417 5.146Q36 16.833 36 20.167v12.666q0 1.292-.917 2.209-.916.916-2.208.916Z"/></svg>

<svg xmlns="http://www.w3.org/2000/svg" height="40" width="40"><path d="M33.042 34.542Q33.667 34.542 34.125 34.083Q34.583 33.625 34.583 33Q34.583 32.417 34.125 31.958Q33.667 31.5 33.042 31.5Q32.458 31.5 32 31.958Q31.542 32.417 31.542 33Q31.542 33.625 32 34.083Q32.458 34.542 33.042 34.542ZM19.958 35.958Q15.375 35.958 12 33.896Q8.625 31.833 6.5 28.5L13.25 21.708L18.75 26.417L27 18.167V22.167H29.125V14.458H21.458V16.625H25.5L18.625 23.5L13.083 18.833L5.375 26.5Q4.708 25.125 4.375 23.375Q4.042 21.625 4.042 20.167Q4.042 16.833 5.292 13.896Q6.542 10.958 8.688 8.75Q10.833 6.542 13.75 5.271Q16.667 4 20.042 4Q23.375 4 26.271 5.271Q29.167 6.542 31.312 8.75Q33.458 10.958 34.729 13.896Q36 16.833 36 20.167V32.833Q36 34.125 35.083 35.042Q34.167 35.958 32.875 35.958Z"/></svg>
